X:1
T:Det Tredje Bud
T:Det Tredje Bud
T:Ole Andersen Mærli, Sørum
C:Ole Andersen Mærli, Sørum
L:1/8
M:2/4
K:F
V:1 treble nm="Piano" snm="Pno."
V:1
"C" c2 dc |"F" A2 FG |"Bbmaj7" Ac"C7" cd |"F" c4 |"C" c2 dc |"F" A2 FG |"Dm" Ac"G7" cd |"C" c4 | %8
w: Vi vil be-|gyn- de Det|tred- je Her- rens|Bud.|Til Kir- ken|Skyn- de Sab-|bath er sat af|Gud;|
"F" A2 GA |"Dm" F2"C" GG |"F" Ac BA |"C" G4 |"F" A2 GA |"Bb" F2 GG |"F" Ac"G7" cd |"C" c4 | %16
w: Vel- kom- men|væ- re, Du|hel- lig Hvi- le|dag!|Du skal os|læ- re Guds|go- de Vel- be-|hag,|
"F" c2 Ac |"Bb" d2 cB |"F" Ac"C7" BG |"F" F4 |] %20
w: Og os for-|æ- re En|him- mel- god For-|smag.|

